assets/efishery/sales-fill.svg

<svg width="24" height="25" viewBox="0 0 24 25" fill="none" xmlns="http://www.w3.org/2000/svg">
<path fill-rule="evenodd" clip-rule="evenodd" d="M7 6.02344C7 3.95237 8.67893 2.27344 10.75 2.27344C12.8211 2.27344 14.5 3.95237 14.5 6.02344V8.02344C14.5 10.0945 12.8211 11.7734 10.75 11.7734C8.67893 11.7734 7 10.0945 7 8.02344V6.02344ZM10.3589 3.8073C9.3027 3.99242 8.5 4.91419 8.5 6.02344V6.10572C8.8788 5.93302 9.22574 5.63344 9.53935 5.24143C9.90319 4.78662 10.1784 4.25793 10.3589 3.8073ZM11.863 4.06756C11.8067 4.2283 11.7398 4.40013 11.6621 4.57846C11.7121 4.62636 11.772 4.67343 11.843 4.71516C12.0093 4.81282 12.2737 4.90325 12.6793 4.86514C12.4804 4.53439 12.1987 4.25901 11.863 4.06756ZM10.7107 6.17847C10.7829 6.08817 10.8522 5.9961 10.9186 5.90287C10.9711 5.93953 11.0259 5.9748 11.0831 6.0084C11.5859 6.30385 12.2284 6.44671 13 6.33705V8.02344C13 9.26608 11.9926 10.2734 10.75 10.2734C9.50736 10.2734 8.5 9.26608 8.5 8.02344V7.68581C9.44946 7.46186 10.1853 6.8352 10.7107 6.17847Z" fill="#1D1D1D"/>
<path d="M6 12.9015C5.12611 13.2103 4.5 14.0438 4.5 15.0234V18.2734H9.75C10.1642 18.2734 10.5 18.6092 10.5 19.0234C10.5 19.4377 10.1642 19.7734 9.75 19.7734H3.75C3.33579 19.7734 3 19.4377 3 19.0234V15.0234C3 12.9524 4.67893 11.2734 6.75 11.2734H7.25C7.53235 11.2734 7.79062 11.432 7.91849 11.6834L7.92131 11.6887C7.92516 11.6958 7.93269 11.7094 7.94401 11.7286C7.96668 11.7671 8.00421 11.8274 8.05733 11.9024C8.16414 12.0532 8.33029 12.258 8.56077 12.4629C9.01543 12.867 9.71959 13.2734 10.75 13.2734C11.7804 13.2734 12.4846 12.867 12.9392 12.4629C13.1697 12.258 13.3359 12.0532 13.4427 11.9024C13.4958 11.8274 13.5333 11.7671 13.556 11.7286C13.5673 11.7094 13.5748 11.6958 13.5787 11.6887L13.5815 11.6834C13.7094 11.432 13.9677 11.2734 14.25 11.2734H14.75C16.8211 11.2734 18.5 12.9524 18.5 15.0234V15.5234C18.5 15.9377 18.1642 16.2734 17.75 16.2734C17.3358 16.2734 17 15.9377 17 15.5234V15.0234C17 14.0438 16.3739 13.2103 15.5 12.9015V14.9054C15.5 16.2063 14.131 17.0524 12.9674 16.4707L10.75 15.362L8.53262 16.4707C7.36905 17.0524 6 16.2063 6 14.9054V12.9015Z" fill="#1D1D1D"/>
<path d="M15.0885 20.1455C15.0885 20.0601 15.0645 19.9928 15.0165 19.9434C14.9698 19.8941 14.9125 19.8694 14.8445 19.8694C14.7765 19.8694 14.7185 19.8941 14.6705 19.9434C14.6238 19.9914 14.6005 20.0581 14.6005 20.1434C14.6005 20.2288 14.6238 20.2968 14.6705 20.3475C14.7185 20.3968 14.7765 20.4214 14.8445 20.4214C14.9125 20.4214 14.9698 20.3968 15.0165 20.3475C15.0645 20.2981 15.0885 20.2308 15.0885 20.1455Z" fill="#1D1D1D"/>
<path d="M16.9697 20.0374C16.9697 19.9788 16.9497 19.9321 16.9097 19.8974C16.8697 19.8628 16.8197 19.8454 16.7597 19.8454C16.7024 19.8454 16.6537 19.8621 16.6137 19.8955C16.5751 19.9288 16.5511 19.9761 16.5417 20.0374H16.9697Z" fill="#1D1D1D"/>
<path fill-rule="evenodd" clip-rule="evenodd" d="M12.75 17.2734C11.7835 17.2734 11 18.0569 11 19.0234V21.0234C11 21.9899 11.7835 22.7734 12.75 22.7734H18.75C19.7165 22.7734 20.5 21.9899 20.5 21.0234V19.0234C20.5 18.0569 19.7165 17.2734 18.75 17.2734H12.75ZM16.0199 19.2234V20.7034H15.6779V19.2234H16.0199ZM13.322 20.6674C13.4033 20.7008 13.4953 20.7174 13.598 20.7174C13.7033 20.7174 13.7947 20.6981 13.872 20.6595C13.9493 20.6208 14.008 20.5688 14.048 20.5035C14.0893 20.4381 14.11 20.3654 14.11 20.2854C14.11 20.2015 14.0893 20.1328 14.048 20.0794C14.0067 20.0261 13.9573 19.9855 13.9 19.9574C13.844 19.9294 13.7707 19.9001 13.68 19.8694C13.5893 19.8401 13.5227 19.8128 13.48 19.7874C13.4373 19.7621 13.416 19.7268 13.416 19.6814C13.416 19.6401 13.4287 19.6088 13.454 19.5875C13.4793 19.5648 13.5127 19.5534 13.554 19.5534C13.602 19.5534 13.6413 19.5668 13.672 19.5934C13.7027 19.6188 13.7193 19.6541 13.722 19.6994H14.092C14.0853 19.5674 14.0347 19.4648 13.94 19.3914C13.8453 19.3168 13.7207 19.2794 13.566 19.2794C13.414 19.2794 13.2907 19.3168 13.196 19.3914C13.1013 19.4648 13.054 19.5668 13.054 19.6974C13.054 19.7854 13.0747 19.8568 13.116 19.9114C13.1573 19.9661 13.2067 20.0075 13.264 20.0354C13.3213 20.0634 13.3953 20.0914 13.486 20.1194C13.5487 20.1381 13.5967 20.1548 13.63 20.1694C13.6647 20.1841 13.6933 20.2028 13.716 20.2254C13.74 20.2481 13.752 20.2768 13.752 20.3114C13.752 20.3528 13.7373 20.3855 13.708 20.4095C13.6787 20.4321 13.6387 20.4434 13.588 20.4434C13.5387 20.4434 13.4987 20.4301 13.468 20.4035C13.4373 20.3755 13.4193 20.3354 13.414 20.2834H13.05C13.0527 20.3755 13.078 20.4541 13.126 20.5194C13.1753 20.5848 13.2407 20.6341 13.322 20.6674ZM14.3165 19.8414C14.2738 19.9281 14.2525 20.0288 14.2525 20.1434C14.2525 20.2581 14.2738 20.3594 14.3165 20.4474C14.3605 20.5341 14.4198 20.6014 14.4945 20.6495C14.5691 20.6961 14.6518 20.7194 14.7425 20.7194C14.8211 20.7194 14.8898 20.7034 14.9485 20.6714C15.0085 20.6395 15.0551 20.5975 15.0885 20.5455V20.7034H15.4305V19.5875H15.0885V19.7454C15.0565 19.6934 15.0105 19.6514 14.9505 19.6194C14.8918 19.5875 14.8231 19.5714 14.7445 19.5714C14.6525 19.5714 14.5691 19.5948 14.4945 19.6414C14.4198 19.6881 14.3605 19.7548 14.3165 19.8414ZM17.3137 20.2274C17.3177 20.1928 17.3197 20.1595 17.3197 20.1274C17.3197 20.0154 17.2957 19.9174 17.2477 19.8335C17.2011 19.7495 17.1357 19.6848 17.0517 19.6395C16.9677 19.5941 16.8717 19.5714 16.7637 19.5714C16.6531 19.5714 16.5551 19.5948 16.4697 19.6414C16.3844 19.6881 16.3177 19.7548 16.2697 19.8414C16.2231 19.9281 16.1997 20.0294 16.1997 20.1455C16.1997 20.2614 16.2237 20.3628 16.2717 20.4494C16.3197 20.5361 16.3864 20.6028 16.4717 20.6495C16.5571 20.6961 16.6544 20.7194 16.7637 20.7194C16.8544 20.7194 16.9364 20.7028 17.0097 20.6694C17.0831 20.6361 17.1437 20.5901 17.1917 20.5315C17.2411 20.4728 17.2751 20.4068 17.2937 20.3335H16.9297C16.8964 20.4054 16.8371 20.4415 16.7517 20.4415C16.6944 20.4415 16.6457 20.4235 16.6057 20.3874C16.5671 20.3501 16.5451 20.2968 16.5397 20.2274H17.3137ZM17.9541 20.7194C17.8568 20.7194 17.7701 20.7028 17.6941 20.6694C17.6181 20.6361 17.5581 20.5908 17.5141 20.5334C17.4701 20.4748 17.4455 20.4095 17.4401 20.3375H17.7781C17.7821 20.3761 17.8001 20.4074 17.8321 20.4314C17.8641 20.4555 17.9035 20.4674 17.9501 20.4674C17.9928 20.4674 18.0255 20.4594 18.0481 20.4434C18.0721 20.4261 18.0841 20.4041 18.0841 20.3774C18.0841 20.3454 18.0675 20.3221 18.0341 20.3074C18.0008 20.2915 17.9468 20.2741 17.8721 20.2554C17.7921 20.2368 17.7255 20.2174 17.6721 20.1974C17.6188 20.1761 17.5728 20.1434 17.5341 20.0994C17.4955 20.0541 17.4761 19.9935 17.4761 19.9174C17.4761 19.8535 17.4935 19.7955 17.5281 19.7435C17.5641 19.6901 17.6161 19.6481 17.6841 19.6175C17.7535 19.5868 17.8355 19.5714 17.9301 19.5714C18.0701 19.5714 18.1801 19.6061 18.2601 19.6754C18.3415 19.7448 18.3881 19.8368 18.4001 19.9515H18.0841C18.0788 19.9128 18.0615 19.8821 18.0321 19.8594C18.0041 19.8368 17.9668 19.8254 17.9201 19.8254C17.8801 19.8254 17.8495 19.8335 17.8281 19.8494C17.8068 19.8641 17.7961 19.8848 17.7961 19.9114C17.7961 19.9434 17.8128 19.9674 17.8461 19.9834C17.8808 19.9995 17.9341 20.0154 18.0061 20.0315C18.0888 20.0528 18.1561 20.0741 18.2081 20.0954C18.2601 20.1154 18.3055 20.1488 18.3441 20.1954C18.3841 20.2408 18.4048 20.3021 18.4061 20.3794C18.4061 20.4448 18.3875 20.5035 18.3501 20.5555C18.3141 20.6061 18.2615 20.6461 18.1921 20.6754C18.1241 20.7048 18.0448 20.7194 17.9541 20.7194Z" fill="#1D1D1D"/>
</svg>

<svg viewBox="0 0 24 25" xmlns="http://www.w3.org/2000/svg">
  <path fill-rule="evenodd" clip-rule="evenodd" d="M7 6.023a3.75 3.75 0 1 1 7.5 0v2a3.75 3.75 0 1 1-7.5 0v-2zm3.359-2.216A2.25 2.25 0 0 0 8.5 6.023v.083c.379-.173.726-.473 1.04-.865.363-.454.638-.983.819-1.434zm1.504.26c-.056.161-.123.333-.2.511.05.048.109.095.18.137.166.098.43.188.836.15a2.26 2.26 0 0 0-.816-.797zm-1.152 2.111c.072-.09.141-.182.208-.275.052.037.107.072.164.105.503.296 1.145.439 1.917.329v1.686a2.25 2.25 0 0 1-4.5 0v-.337c.95-.224 1.685-.85 2.21-1.508z"/>
  <path d="M6 12.902a2.25 2.25 0 0 0-1.5 2.121v3.25h5.25a.75.75 0 0 1 0 1.5h-6a.75.75 0 0 1-.75-.75v-4a3.75 3.75 0 0 1 3.75-3.75h.5a.75.75 0 0 1 .668.41l.003.006.023.04a3.348 3.348 0 0 0 .617.734c.454.404 1.159.81 2.189.81s1.735-.406 2.19-.81a3.347 3.347 0 0 0 .616-.734l.023-.04.002-.006a.75.75 0 0 1 .669-.41h.5a3.75 3.75 0 0 1 3.75 3.75v.5a.75.75 0 1 1-1.5 0v-.5a2.25 2.25 0 0 0-1.5-2.121v2.003a1.75 1.75 0 0 1-2.533 1.566l-2.217-1.109-2.217 1.109A1.75 1.75 0 0 1 6 14.905v-2.003zM15.088 20.145a.278.278 0 0 0-.071-.202.228.228 0 0 0-.172-.074.234.234 0 0 0-.175.074.275.275 0 0 0-.07.2.29.29 0 0 0 .07.204c.049.05.107.074.175.074a.228.228 0 0 0 .171-.073.277.277 0 0 0 .072-.203zM16.97 20.037a.176.176 0 0 0-.06-.14.221.221 0 0 0-.15-.052.22.22 0 0 0-.146.05.225.225 0 0 0-.072.142h.428z"/>
  <path fill-rule="evenodd" clip-rule="evenodd" d="M12.75 17.273a1.75 1.75 0 0 0-1.75 1.75v2c0 .967.784 1.75 1.75 1.75h6a1.75 1.75 0 0 0 1.75-1.75v-2a1.75 1.75 0 0 0-1.75-1.75h-6zm3.27 1.95v1.48h-.342v-1.48h.342zm-2.698 1.444a.72.72 0 0 0 .276.05c.105 0 .197-.019.274-.057a.42.42 0 0 0 .176-.157.4.4 0 0 0 .062-.218.327.327 0 0 0-.062-.206.42.42 0 0 0-.148-.122 1.785 1.785 0 0 0-.22-.088 1.043 1.043 0 0 1-.2-.082c-.043-.025-.064-.06-.064-.106 0-.04.013-.072.038-.094a.144.144 0 0 1 .1-.034c.048 0 .087.014.118.04.03.026.047.061.05.106h.37a.394.394 0 0 0-.152-.308.587.587 0 0 0-.374-.112.58.58 0 0 0-.37.112.365.365 0 0 0-.142.306c0 .088.02.16.062.214.041.055.09.096.148.124.057.028.131.056.222.084.063.02.11.036.144.05a.269.269 0 0 1 .086.056.113.113 0 0 1 .036.086.12.12 0 0 1-.044.099.192.192 0 0 1-.12.033.177.177 0 0 1-.12-.04.18.18 0 0 1-.054-.12h-.364a.408.408 0 0 0 .272.384zm.995-.826a.676.676 0 0 0-.065.302c0 .115.022.216.064.304a.459.459 0 0 0 .426.272.424.424 0 0 0 .207-.048.367.367 0 0 0 .14-.125v.157h.341v-1.116h-.341v.158a.352.352 0 0 0-.139-.126.425.425 0 0 0-.205-.048.463.463 0 0 0-.428.27zm2.997.386a.87.87 0 0 0 .006-.1.582.582 0 0 0-.072-.293.481.481 0 0 0-.196-.194.596.596 0 0 0-.288-.069.604.604 0 0 0-.294.07.499.499 0 0 0-.2.2.633.633 0 0 0-.07.304c0 .116.024.218.072.304a.498.498 0 0 0 .2.2.6.6 0 0 0 .292.07c.09 0 .172-.016.246-.05a.496.496 0 0 0 .182-.137.492.492 0 0 0 .102-.198h-.364c-.034.071-.093.108-.178.108a.21.21 0 0 1-.146-.055.24.24 0 0 1-.066-.16h.774zm.64.492a.64.64 0 0 1-.26-.05.447.447 0 0 1-.18-.136.366.366 0 0 1-.074-.196h.338a.13.13 0 0 0 .054.094.19.19 0 0 0 .118.036.169.169 0 0 0 .098-.024.078.078 0 0 0 .036-.066c0-.032-.017-.055-.05-.07a.938.938 0 0 0-.162-.052 1.64 1.64 0 0 1-.2-.058.36.36 0 0 1-.138-.098.271.271 0 0 1-.058-.182c0-.064.018-.122.052-.174a.36.36 0 0 1 .156-.125.604.604 0 0 1 .246-.047c.14 0 .25.035.33.104.081.07.128.162.14.276h-.316a.135.135 0 0 0-.052-.092.173.173 0 0 0-.112-.034c-.04 0-.07.009-.092.024a.071.071 0 0 0-.032.062c0 .032.017.056.05.072a.846.846 0 0 0 .16.049 1.6 1.6 0 0 1 .202.063c.052.02.098.054.136.1.04.046.06.107.062.184a.294.294 0 0 1-.056.176.359.359 0 0 1-.158.12.596.596 0 0 1-.238.044z"/>
</svg>
